calendar-star-four-points.svg

<svg fill="currentColor" viewBox="0 0 24 24"><path d="M10.74 12.25 12 9.5l1.25 2.75L16 13.5l-2.75 1.26L12 17.5l-1.26-2.74L8 13.5zM16 3V1h2v2h1c.53 0 1.04.21 1.41.59.38.37.59.88.59 1.41v14c0 .53-.21 1.04-.59 1.41-.37.38-.88.59-1.41.59H5c-.53 0-1.04-.21-1.41-.59C3.21 20.04 3 19.53 3 19V5c0-.53.21-1.04.59-1.41C3.96 3.21 4.47 3 5 3h1V1h2v2zM5 8v11h14V8z"/></svg>

<svg  viewBox="0 0 24 24" fill="currentColor"><path  d="M10.74 12.25L12 9.5L13.25 12.25L16 13.5L13.25 14.76L12 17.5L10.74 14.76L8 13.5L10.74 12.25M16 3V1H18V3H19C19.53 3 20.04 3.21 20.41 3.59C20.79 3.96 21 4.47 21 5V19C21 19.53 20.79 20.04 20.41 20.41C20.04 20.79 19.53 21 19 21H5C4.47 21 3.96 20.79 3.59 20.41C3.21 20.04 3 19.53 3 19V5C3 4.47 3.21 3.96 3.59 3.59C3.96 3.21 4.47 3 5 3H6V1H8V3H16M5 8V19H19V8H5Z"/></svg>
